X:700
T:
N:Melodi, som mycket sjungits under den gamla nationalbeväringens övningstider.
S:Samlaren mins ej, av vilken han först hört denna melodi.
S:Jag har kunnat den, sedan jag var gosse.
R:marsch
O:Gotland, Burs
M:C
L:1/8
K:C
c2 (c>d) e2 e2|(d>c) (de) c2 (G>G)|(e>d) (ef) g2 g2|(f>e) (fg) e4:|
|:(f>e) (fg) a3 g|(f>e) (fa) g4|(gc') (eg) (fe) (dc)|Le2 Ld2 c4:|

